!!!OTL: Winterrosen Es kam ein Fraeulein mit ein'm Krueg
!!!ARE: Nord - America, Canada, Saskatchewan, Saskatoon
!!!YOR: 7, S. 59
!!    1979 aufgenommen
!!!SCT: Q1145C
!!!YEM: Copyright 1995, estate of Helmut Schaffrath.
**kern
*ICvox
*Ivox
*M4/4
*k[b-]
*F:
=1
{2f
4c
4f
=2
4f
4f
4g
4a
=3
2f}
{2a
=4
4b-
8a
8g
4g
4a
=5
4f
4a
2g
=6
4r}
{4f
4f
4a
=7
2cc
4f
4g
=8
4a
4cc
8a
4.f
=9
4r}
{4c
4f
4a
=10
2cc
2a
=11
2g
2f}
==
!!!AGN: geistlich
!! Melodievergleich zu Q0145B, anderes Lied: KEINE zur Balladengruppe
!!    gehoerende Melodie. Verzierungen (Glissandi) .
!!    Pause am Ende der dritten Zeile ergaenzt.
!!!ONB: ESAC (Essen Associative Code) Database: BALLADE
!!!AMT: simple quadruple
!!!AIN: vox
!!!EED: Helmut Schaffrath
!!!EEV: 1.0
*-
